icons/plexis/48/openscad.svg

<svg viewBox="0 0 48 48" xmlns="http://www.w3.org/2000/svg" xmlns:xlink="http://www.w3.org/1999/xlink">
  <linearGradient id="a" gradientTransform="matrix(0 -1 1 0 -.0000015 47.999998)" gradientUnits="userSpaceOnUse" x1="1" x2="47">
    <stop offset="0" stop-color="#eaeaea"/>
    <stop offset="1" stop-color="#f4f4f4"/>
  </linearGradient>
  <path d="m47 24c0 22.703-.297 23-23 23-22.703 0-23-.297-23-23 0-22.703.297-23 23-23 22.703 0 23 .297 23 23z" fill="url(#a)"/>
  <g transform="matrix(3.543307 0 0 3.543307 -.00000028 -.0023614)">
    <path d="m7.06 4.798c-.947 0-1.757.584-2.092 1.411h-1.013a.564.847 0 0 0-.564.847.564.847 0 0 0  .564.847h1.013c.335.827 1.145 1.411 2.092 1.411.947 0 1.757-.584 2.092-1.411h1.013a.564.847 0 0 0  .564-.847.564.847 0 0 0-.564-.847h-1.013c-.335-.827-1.145-1.411-2.092-1.411m0 1.411c.468 0 .847.379.847.847 0 .468-.379.847-.847.847-.468 0-.847-.379-.847-.847 0-.468.379-.847.847-.847z" fill-opacity=".098"/>
    <path d="m3.669 5.927v1.693h1.976v-1.693zm4.233 0v1.693h1.976v-1.693z" fill="#fc5c74"/>
    <path d="m-28 7.5a3 4.5 0 1 1-6 0 3 4.5 0 1 1  6 0z" fill="#d94c47" transform="matrix(.18814815 0 0 .18814815 9.5014817 5.3622223)"/>
    <path d="m-28 7.5a3 4.5 0 1 1-6 0 3 4.5 0 1 1  6 0z" fill="#d94c47" transform="matrix(.18814815 0 0 .18814815 15.71037 5.3622223)"/>
    <path d="m6.773 4.516c-1.247 0-2.258 1.01-2.258 2.258 0 1.247 1.01 2.258 2.258 2.258 1.247 0 2.258-1.01 2.258-2.258 0-1.247-1.01-2.258-2.258-2.258zm0 1.411c.468 0 .847.379.847.847 0 .468-.379.847-.847.847-.468 0-.847-.379-.847-.847 0-.468.379-.847.847-.847z" fill="#ffc100"/>
  </g>
</svg>

<svg xmlns="http://www.w3.org/2000/svg" viewBox="0 0 48 48">
 <defs>
  <linearGradient id="linearGradient3764" x1="1" x2="47" gradientUnits="userSpaceOnUse" gradientTransform="matrix(0,-1,1,0,-1.5e-6,47.999998)">
   <stop style="stop-color:#eaeaea;stop-opacity:1"/>
   <stop offset="1" style="stop-color:#f4f4f4;stop-opacity:1"/>
  </linearGradient>
 </defs>
 <g>
  
  
  
 </g>
 <g>
  <path d="m 47,24 C 47,46.703 46.703,47 24,47 1.297,47 1,46.703 1,24 1,1.297 1.297,1 24,1 46.703,1 47,1.297 47,24 z" style="fill:url(#linearGradient3764);fill-opacity:1"/>
 </g>
 <g>
  
 </g>
 <g transform="matrix(3.543307,0,0,3.543307,-2.822922e-7,-0.0023614)">
  <path d="m 7.06,4.798 c -0.947,0 -1.757,0.584 -2.092,1.411 l -1.013,0 A 0.564,0.847 0 0 0 3.391,7.056 0.564,0.847 0 0 0 3.955,7.903 l 1.013,0 C 5.303,8.73 6.113,9.314 7.06,9.314 8.007,9.314 8.817,8.73 9.152,7.903 l 1.013,0 A 0.564,0.847 0 0 0 10.729,7.056 0.564,0.847 0 0 0 10.165,6.209 l -1.013,0 C 8.817,5.382 8.007,4.798 7.06,4.798 m 0,1.411 c 0.468,0 0.847,0.379 0.847,0.847 0,0.468 -0.379,0.847 -0.847,0.847 -0.468,0 -0.847,-0.379 -0.847,-0.847 0,-0.468 0.379,-0.847 0.847,-0.847 z" style="fill:#000;fill-opacity:0.098;stroke:none"/>
  <g>
   <path d="m 3.669 5.927 0 1.693 1.976 0 0 -1.693 z m 4.233 0 0 1.693 1.976 0 0 -1.693 z" style="fill:#fc5c74;fill-opacity:1;stroke:none"/>
   <path transform="matrix(0.18814815,0,0,0.18814815,9.5014817,5.3622223)" d="m -28 7.5 a 3 4.5 0 1 1 -6 0 3 4.5 0 1 1 6 0 z" style="fill:#d94c47;fill-opacity:1;stroke:none"/>
   <path d="m -28 7.5 a 3 4.5 0 1 1 -6 0 3 4.5 0 1 1 6 0 z" transform="matrix(0.18814815,0,0,0.18814815,15.71037,5.3622223)" style="fill:#d94c47;fill-opacity:1;stroke:none"/>
   <path d="m 6.773 4.516 c -1.247 0 -2.258 1.01 -2.258 2.258 0 1.247 1.01 2.258 2.258 2.258 1.247 0 2.258 -1.01 2.258 -2.258 0 -1.247 -1.01 -2.258 -2.258 -2.258 z m 0 1.411 c 0.468 0 0.847 0.379 0.847 0.847 0 0.468 -0.379 0.847 -0.847 0.847 -0.468 0 -0.847 -0.379 -0.847 -0.847 0 -0.468 0.379 -0.847 0.847 -0.847 z" style="fill:#ffc100;fill-opacity:1;stroke:none"/>
  </g>
 </g>
</svg>
